build/img/soc-inst.svg

<svg width="32" height="32" viewBox="0 0 32 32" fill="none" xmlns="http://www.w3.org/2000/svg">
<path d="M23.3375 0H8.6625C3.8875 0 0 3.8875 0 8.6625V23.3375C0 28.1125 3.8875 32 8.6625 32H23.3375C28.1125 32 32 28.1125 32 23.3375V8.6625C32 3.8875 28.1125 0 23.3375 0ZM30.125 23.3375C30.125 27.0812 27.0812 30.125 23.3375 30.125H8.6625C4.91875 30.125 1.875 27.0812 1.875 23.3375V8.6625C1.875 4.91875 4.91875 1.875 8.6625 1.875H23.3375C27.0812 1.875 30.125 4.91875 30.125 8.6625V23.3375Z" fill="#878183"/>
<path d="M16 7.25C11.175 7.25 7.25 11.175 7.25 16C7.25 20.825 11.175 24.75 16 24.75C20.825 24.75 24.75 20.825 24.75 16C24.75 11.175 20.825 7.25 16 7.25ZM16 22.875C12.2125 22.875 9.125 19.7938 9.125 16C9.125 12.2125 12.2063 9.125 16 9.125C19.7875 9.125 22.875 12.2063 22.875 16C22.875 19.7875 19.7875 22.875 16 22.875Z" fill="#878183"/>
<path d="M24.9562 4.14375C23.5312 4.14375 22.3687 5.30625 22.3687 6.73125C22.3687 8.15625 23.5312 9.31875 24.9562 9.31875C26.3812 9.31875 27.5438 8.15625 27.5438 6.73125C27.5438 5.30625 26.3875 4.14375 24.9562 4.14375ZM24.9562 7.4375C24.5625 7.4375 24.2437 7.11875 24.2437 6.725C24.2437 6.33125 24.5625 6.0125 24.9562 6.0125C25.35 6.0125 25.6688 6.33125 25.6688 6.725C25.6688 7.11875 25.35 7.4375 24.9562 7.4375Z" fill="#878183"/>
</svg>

<svg width="32" height="32" fill="none" xmlns="http://www.w3.org/2000/svg"><path d="M23.337 0H8.662C3.887 0 0 3.888 0 8.662v14.675C0 28.113 3.888 32 8.662 32h14.675C28.113 32 32 28.113 32 23.337V8.662C32 3.887 28.113 0 23.337 0zm6.788 23.337a6.794 6.794 0 01-6.788 6.788H8.662a6.794 6.794 0 01-6.787-6.788V8.662a6.794 6.794 0 016.787-6.787h14.675a6.794 6.794 0 016.788 6.787v14.675z" fill="#878183"/><path d="M16 7.25c-4.825 0-8.75 3.925-8.75 8.75s3.925 8.75 8.75 8.75 8.75-3.925 8.75-8.75S20.825 7.25 16 7.25zm0 15.625c-3.787 0-6.875-3.081-6.875-6.875 0-3.787 3.081-6.875 6.875-6.875A6.883 6.883 0 0122.875 16c0 3.788-3.087 6.875-6.875 6.875zm8.956-18.731A2.593 2.593 0 0022.37 6.73a2.593 2.593 0 002.587 2.588 2.593 2.593 0 002.588-2.588 2.589 2.589 0 00-2.588-2.587zm0 3.293a.712.712 0 110-1.424.712.712 0 010 1.425z" fill="#878183"/></svg>
